src/images/partners/certik.svg

<svg width="80" height="80" viewBox="0 0 80 80" fill="none" xmlns="http://www.w3.org/2000/svg">
<g clip-path="url(#clip0_6739_105494)">
<path d="M68 1.48619e-06L12 2.62268e-07C5.37258 1.17422e-07 -1.17422e-07 5.37258 -2.62268e-07 12L-1.48619e-06 68C-1.63103e-06 74.6274 5.37258 80 12 80L68 80C74.6274 80 80 74.6274 80 68L80 12C80 5.37259 74.6274 1.63103e-06 68 1.48619e-06Z" fill="black"/>
<g clip-path="url(#clip1_6739_105494)">
<path fill-rule="evenodd" clip-rule="evenodd" d="M62.2732 20.6869L62.5637 22.4818C62.7815 24.1331 62.8905 25.7843 62.8542 27.4715C62.8542 31.169 62.4185 34.8305 61.5471 38.4202C60.3852 43.2664 58.3519 47.8972 55.5562 52.0613C52.3248 56.7997 47.641 61.4305 40.8514 65.2356L40.0163 65.7023L39.1812 65.2356C32.3916 61.5023 27.7079 56.8356 24.4764 52.0613C21.6444 47.8972 19.6474 43.3023 18.4856 38.4202C17.6142 34.8305 17.1785 31.169 17.1785 27.4715C17.1785 25.8202 17.2511 24.1331 17.469 22.4818L17.7231 20.6869C17.7594 20.5433 17.7594 20.3997 17.7231 20.2561C17.6868 20.1125 17.6505 19.969 17.5416 19.8613C17.469 19.7536 17.36 19.6459 17.2511 19.5741C17.1422 19.5023 16.9969 19.4664 16.888 19.4305C16.7428 19.3946 16.5976 19.3946 16.4523 19.4305C16.3071 19.4664 16.1619 19.5382 16.0529 19.61C15.944 19.6818 15.8351 19.7895 15.7625 19.8972C15.6899 20.0408 15.6535 20.1843 15.6172 20.3279L15.3268 22.1228C15.1089 23.8818 15 25.6767 15 27.4715C15 31.3484 15.472 35.1895 16.3797 38.9587C16.9969 41.5074 17.832 44.0202 18.885 46.4254C19.9379 48.8305 21.2087 51.1279 22.6973 53.3177C26.1103 58.3433 31.0482 63.2613 38.1646 67.1382L39.508 67.892C39.6895 67.9638 39.8711 67.9997 40.0526 67.9997C40.2342 67.9997 40.4157 67.9638 40.5973 67.892L41.9407 67.1382C49.0207 63.2254 53.995 58.3074 57.4079 53.3177C60.3852 48.9382 62.5274 44.0561 63.7256 38.9587C64.6333 35.1895 65.069 31.3484 65.069 27.4715C65.069 25.6767 64.96 23.8818 64.7422 22.0869L64.4517 20.292C64.4154 20.1484 64.3791 20.0049 64.3065 19.8613C64.2339 19.7536 64.1249 19.6459 64.016 19.5741C63.9071 19.5023 63.7619 19.4305 63.6166 19.3946C63.4714 19.3587 63.3262 19.3587 63.1809 19.3946C63.0357 19.4305 62.8905 19.4664 62.7452 19.5382C62.6363 19.61 62.5274 19.7177 62.4548 19.8254C62.3821 19.9331 62.3095 20.0766 62.2732 20.2202V20.6869Z" fill="white"/>
<path fill-rule="evenodd" clip-rule="evenodd" d="M23.8231 19.4665L40.0891 14.405L56.682 19.5742C56.8272 19.6101 56.9724 19.6101 57.1177 19.6101C57.2629 19.6101 57.4081 19.5742 57.5534 19.5024C57.6986 19.4306 57.8075 19.3588 57.9164 19.2153C58.0254 19.1076 58.098 18.964 58.098 18.8204C58.1343 18.6768 58.1343 18.5332 58.1343 18.3896C58.1343 18.246 58.098 18.1024 58.0254 17.9588C57.9527 17.8153 57.8801 17.7076 57.7712 17.5999C57.6623 17.4922 57.517 17.4204 57.3718 17.4204L40.4159 12.1076C40.1981 12.0358 39.9802 12.0358 39.7624 12.1076L23.2058 17.2768C23.0606 17.3127 22.9517 17.3845 22.8064 17.4563C22.6975 17.564 22.5886 17.6717 22.5523 17.8152C22.4797 17.9588 22.4434 18.1024 22.4434 18.246C22.4434 18.3896 22.4434 18.5332 22.4797 18.6768C22.516 18.8204 22.5886 18.964 22.6612 19.0717C22.7338 19.1793 22.8791 19.287 23.0243 19.3588C23.1332 19.4306 23.2784 19.4665 23.46 19.4665C23.5326 19.5024 23.6778 19.5024 23.8231 19.4665Z" fill="white"/>
<path fill-rule="evenodd" clip-rule="evenodd" d="M15.7989 21.0101L39.0725 67.3896C39.1451 67.569 39.2903 67.7126 39.4356 67.8203C39.7986 68.0357 40.2343 68.0357 40.5974 67.8203C40.779 67.7126 40.9242 67.569 41.0331 67.3896L55.2296 40.287L55.2659 40.2511L64.343 20.9742C64.4156 20.8306 64.4519 20.687 64.4519 20.5434C64.4519 20.3998 64.4519 20.2562 64.3793 20.1126C64.343 19.9691 64.2703 19.8255 64.1614 19.7178C64.0888 19.6101 63.9436 19.5024 63.8346 19.4306C63.7257 19.3588 63.5805 19.3229 63.3989 19.3229C63.2537 19.3229 63.1085 19.3229 62.9632 19.3588C62.818 19.3947 62.6728 19.4665 62.5639 19.5742C62.4549 19.6819 62.346 19.7896 62.3097 19.9332L53.2327 39.2101L40.0165 64.446L17.7233 19.9332C17.6507 19.8255 17.5417 19.6819 17.4691 19.5742C17.3602 19.4665 17.215 19.3947 17.0697 19.3588C16.9245 19.287 16.7793 19.287 16.634 19.3229C16.4888 19.3229 16.3436 19.3588 16.1983 19.4306C16.0894 19.5024 15.9442 19.6101 15.8716 19.7178C15.7989 19.8255 15.7263 19.9691 15.69 20.1126C15.6537 20.2562 15.6174 20.3998 15.6537 20.5434C15.69 20.7229 15.7263 20.8665 15.7989 21.0101Z" fill="white"/>
<path fill-rule="evenodd" clip-rule="evenodd" d="M26.9453 41.6871H52.8693C53.0146 41.6871 53.1598 41.6512 53.305 41.6153C53.4503 41.5794 53.5592 41.4717 53.6318 41.364C53.7407 41.2563 53.8134 41.1486 53.8497 41.005C53.9586 40.7178 53.9586 40.4307 53.8497 40.1435C53.8134 39.9999 53.7044 39.8922 53.6318 39.7845C53.5229 39.6768 53.414 39.605 53.305 39.5332C53.1598 39.4973 53.0146 39.4614 52.8693 39.4614H26.9453C26.8001 39.4614 26.6548 39.4973 26.5096 39.5332C26.3644 39.5691 26.2555 39.6768 26.1828 39.7845C26.0739 39.8922 26.0013 39.9999 25.965 40.1435C25.8561 40.4307 25.8561 40.7178 25.965 41.005C26.0013 41.1486 26.0739 41.2563 26.1828 41.364C26.2918 41.4717 26.4007 41.5435 26.5096 41.6153C26.6548 41.6512 26.8001 41.6512 26.9453 41.6871Z" fill="white"/>
</g>
</g>
<defs>
<clipPath id="clip0_6739_105494">
<rect width="80" height="80" fill="white"/>
</clipPath>
<clipPath id="clip1_6739_105494">
<rect width="50.1053" height="56" fill="white" transform="translate(15 12)"/>
</clipPath>
</defs>
</svg>

<svg xmlns="http://www.w3.org/2000/svg" width="80" height="80" fill="none"><g clip-path="url(#a)"><path fill="#000" d="M68 0H12C5.373 0 0 5.373 0 12v56c0 6.627 5.373 12 12 12h56c6.627 0 12-5.373 12-12V12c0-6.627-5.373-12-12-12Z"/><g fill="#fff" fill-rule="evenodd" clip-path="url(#b)" clip-rule="evenodd"><path d="m62.273 20.687.29 1.795c.218 1.651.328 3.302.291 4.99 0 3.697-.435 7.358-1.307 10.948a42.13 42.13 0 0 1-5.99 13.641c-3.232 4.739-7.916 9.37-14.706 13.175l-.835.466-.835-.466c-6.79-3.734-11.473-8.4-14.705-13.175-2.832-4.164-4.829-8.759-5.99-13.64a46.322 46.322 0 0 1-1.308-10.95c0-1.65.073-3.338.291-4.99l.254-1.794a.866.866 0 0 0 0-.43c-.036-.145-.072-.288-.181-.396a1.1 1.1 0 0 0-.29-.287c-.11-.072-.255-.108-.364-.144a.895.895 0 0 0-.436 0 1.35 1.35 0 0 0-.4.18c-.108.072-.217.18-.29.287a2.008 2.008 0 0 0-.145.43l-.29 1.796A43.613 43.613 0 0 0 15 27.47c0 3.877.472 7.719 1.38 11.488a45.15 45.15 0 0 0 2.505 7.466 42.687 42.687 0 0 0 3.812 6.893c3.413 5.025 8.351 9.943 15.468 13.82l1.343.754c.181.072.363.108.545.108.181 0 .363-.036.544-.108l1.344-.754c7.08-3.913 12.054-8.83 15.467-13.82a43.138 43.138 0 0 0 6.318-14.36 48.95 48.95 0 0 0 1.343-11.486c0-1.795-.109-3.59-.327-5.385l-.29-1.795a2.008 2.008 0 0 0-.145-.43 1.1 1.1 0 0 0-.291-.288 1.348 1.348 0 0 0-.4-.18.895.895 0 0 0-.435 0c-.145.037-.29.072-.436.144-.109.072-.218.18-.29.287a1.317 1.317 0 0 0-.182.395v.467Z"/><path d="m23.823 19.466 16.266-5.061 16.593 5.17c.145.035.29.035.436.035.145 0 .29-.036.435-.108a.92.92 0 0 0 .363-.287.573.573 0 0 0 .182-.395c.036-.143.036-.287.036-.43a.947.947 0 0 0-.109-.431 1.293 1.293 0 0 0-.254-.36.586.586 0 0 0-.4-.179l-16.955-5.312a1.018 1.018 0 0 0-.654 0l-16.556 5.169c-.145.036-.254.107-.4.18-.108.107-.217.215-.254.358a.947.947 0 0 0-.109.431c0 .144 0 .287.037.43.036.144.109.288.181.396a.988.988 0 0 0 .363.287.78.78 0 0 0 .436.107c.073.036.218.036.363 0Z"/><path d="m15.799 21.01 23.273 46.38c.073.179.218.323.364.43.363.216.798.216 1.161 0 .182-.107.327-.251.436-.43L55.23 40.287l.036-.036 9.077-19.277a.947.947 0 0 0 .109-.43c0-.144 0-.288-.073-.431a.853.853 0 0 0-.218-.395c-.072-.108-.217-.216-.326-.287a.78.78 0 0 0-.436-.108c-.145 0-.29 0-.436.036a.868.868 0 0 0-.4.215c-.108.108-.217.216-.253.36L53.233 39.21 40.017 64.446 17.723 19.933c-.072-.107-.181-.251-.254-.359a.868.868 0 0 0-.4-.215.613.613 0 0 0-.435-.036.976.976 0 0 0-.436.108c-.109.071-.254.18-.326.287a1.318 1.318 0 0 0-.182.395c-.036.143-.073.287-.036.43.036.18.072.323.145.467Z"/><path d="M26.945 41.687H52.87c.146 0 .29-.036.436-.072a.578.578 0 0 0 .327-.251.744.744 0 0 0 .218-.359 1.177 1.177 0 0 0 0-.861c-.037-.144-.146-.252-.218-.36a1.989 1.989 0 0 0-.327-.25c-.145-.037-.29-.073-.436-.073H26.945c-.145 0-.29.036-.435.072a.579.579 0 0 0-.327.252.743.743 0 0 0-.218.359 1.177 1.177 0 0 0 0 .861.743.743 0 0 0 .218.359c.109.108.218.18.327.251.145.036.29.036.435.072Z"/></g></g><defs><clipPath id="a"><path fill="#fff" d="M0 0h80v80H0z"/></clipPath><clipPath id="b"><path fill="#fff" d="M15 12h50.105v56H15z"/></clipPath></defs></svg>
